X: 20437
T: John J. Kimmel's Buck Dance
R: hornpipe
M: 4/4
K: Dmajor
|:(3ABc|dcde fdAF|GFGA B2AG|FDFA d2ef|gfed cBA2|
dcde fdAF|GFGA B2AG|FDFA d2ef|1 gecA d2:|2 gecA d4||
|:FBBc dcBA|FBBc dcB2|EAAB cABA|EAAB cBA2|
FBBc dcBA|FBBc dcB2|f3g f2e2|1 d2c2 B4:|2 d2c2 B2||

